svg/matrix.svg

<?xml version="1.0" encoding="UTF-8"?>
<svg xmlns="http://www.w3.org/2000/svg" xmlns:xlink="http://www.w3.org/1999/xlink" width="27.9" height="32" viewBox="0 0 27.9 32">
<path fill-rule="nonzero" fill="rgb(1.568627%, 1.568627%, 1.568627%)" fill-opacity="1" d="M 27.003906 31.203125 L 27.003906 0.703125 L 24.816406 0.703125 L 24.816406 -0.0273438 L 27.855469 -0.0273438 L 27.855469 31.972656 L 24.816406 31.972656 L 24.816406 31.242188 Z M 8.136719 10.40625 L 8.136719 11.945312 L 8.179688 11.945312 C 8.566406 11.382812 9.074219 10.914062 9.667969 10.574219 C 10.25 10.253906 10.917969 10.089844 11.660156 10.089844 C 12.378906 10.089844 13.039062 10.230469 13.628906 10.511719 C 14.222656 10.789062 14.679688 11.28125 14.988281 11.988281 C 15.328125 11.488281 15.785156 11.050781 16.367188 10.671875 C 16.949219 10.285156 17.640625 10.097656 18.429688 10.097656 C 19.03125 10.097656 19.589844 10.171875 20.097656 10.316406 C 20.613281 10.464844 21.054688 10.699219 21.417969 11.023438 C 21.785156 11.347656 22.070312 11.769531 22.277344 12.292969 C 22.484375 12.816406 22.585938 13.441406 22.585938 14.183594 L 22.585938 21.8125 L 19.457031 21.8125 L 19.457031 15.351562 C 19.457031 14.992188 19.441406 14.632812 19.410156 14.273438 C 19.390625 13.964844 19.308594 13.667969 19.171875 13.390625 C 19.039062 13.140625 18.835938 12.933594 18.585938 12.796875 C 18.328125 12.648438 17.980469 12.574219 17.535156 12.574219 C 17.097656 12.574219 16.738281 12.660156 16.464844 12.828125 C 16.199219 12.992188 15.980469 13.21875 15.828125 13.488281 C 15.667969 13.777344 15.5625 14.089844 15.519531 14.417969 C 15.46875 14.765625 15.441406 15.117188 15.441406 15.46875 L 15.441406 21.816406 L 12.3125 21.816406 L 12.3125 15.417969 C 12.3125 15.078125 12.304688 14.742188 12.289062 14.417969 C 12.277344 14.105469 12.214844 13.792969 12.101562 13.5 C 11.996094 13.222656 11.800781 12.988281 11.550781 12.828125 C 11.292969 12.660156 10.914062 12.574219 10.410156 12.574219 C 10.210938 12.582031 10.015625 12.617188 9.828125 12.675781 C 9.570312 12.753906 9.328125 12.878906 9.121094 13.050781 C 8.894531 13.234375 8.699219 13.496094 8.539062 13.84375 C 8.378906 14.1875 8.296875 14.640625 8.296875 15.203125 L 8.296875 21.824219 L 5.167969 21.824219 L 5.167969 10.421875 Z M 0.839844 0.738281 L 0.839844 31.238281 L 3.03125 31.238281 L 3.03125 31.96875 L -0.0078125 31.96875 L -0.0078125 -0.03125 L 3.019531 -0.03125 L 3.019531 0.699219 Z M 0.839844 0.738281 "/>
</svg>

<svg role="img" viewBox="0 0 27.9 32" height="32" width="27.9" xmlns="http://www.w3.org/2000/svg"><path d="M27.004 31.203V.703h-2.188v-.73h3.04v32h-3.04v-.73ZM8.137 10.406v1.54h.043a4.547 4.547 0 0 1 1.488-1.372c.582-.32 1.25-.484 1.992-.484.719 0 1.38.14 1.969.422.594.277 1.05.77 1.36 1.476.34-.5.796-.937 1.378-1.316.582-.387 1.274-.574 2.063-.574.601 0 1.16.074 1.668.218.515.149.957.383 1.32.707.367.325.652.747.86 1.27.206.523.308 1.148.308 1.89v7.63h-3.129v-6.461c0-.36-.016-.72-.047-1.079a2.32 2.32 0 0 0-.238-.882 1.454 1.454 0 0 0-.586-.594c-.258-.149-.606-.223-1.05-.223-.438 0-.798.086-1.071.254-.266.164-.485.39-.637.66-.16.29-.265.602-.308.93-.051.348-.079.7-.079 1.05v6.348h-3.129v-6.398c0-.34-.007-.676-.023-1a2.849 2.849 0 0 0-.187-.918 1.387 1.387 0 0 0-.551-.672c-.258-.168-.637-.254-1.14-.254-.2.008-.395.043-.583.102-.258.078-.5.203-.707.375-.226.183-.422.445-.582.793-.16.344-.242.797-.242 1.36v6.62H5.168V10.422ZM.84.738v30.5h2.19v.73H-.008v-32H3.02V.7Zm0 0" fill="rgb(1.568627%, 1.568627%, 1.568627%)"/></svg>
